svgs/sharp-light/ticket.svg

<svg xmlns="http://www.w3.org/2000/svg" viewBox="0 0 576 512"><!--! Font Awesome Pro 6.6.0 by @fontawesome - https://fontawesome.com License - https://fontawesome.com/license (Commercial License) Copyright 2024 Fonticons, Inc. --><path d="M0 64L0 96l0 80 0 32c26.5 0 48 21.5 48 48s-21.5 48-48 48l0 32 0 80 0 32 32 0 512 0 32 0 0-32 0-80 0-32c-26.5 0-48-21.5-48-48s21.5-48 48-48l0-32 0-80 0-32-32 0L32 64 0 64zM80 256c0-32.8-19.7-61-48-73.3L32 96l512 0 0 86.7c-28.3 12.3-48 40.5-48 73.3s19.7 61 48 73.3l0 86.7L32 416l0-86.7C60.3 317 80 288.8 80 256zm80-64l256 0 0 128-256 0 0-128zm-32-32l0 32 0 128 0 32 32 0 256 0 32 0 0-32 0-128 0-32-32 0-256 0-32 0z"/></svg>

<svg xmlns="http://www.w3.org/2000/svg" viewBox="0 0 576 512"><!--! Font Awesome Pro 6.4.2 by @fontawesome - https://fontawesome.com License - https://fontawesome.com/license (Commercial License) Copyright 2023 Fonticons, Inc. --><path d="M0 64V96v80 32c26.5 0 48 21.5 48 48s-21.5 48-48 48v32 80 32H32 544h32V416 336 304c-26.5 0-48-21.5-48-48s21.5-48 48-48V176 96 64H544 32 0zM80 256c0-32.8-19.7-61-48-73.3V96H544v86.7c-28.3 12.3-48 40.5-48 73.3s19.7 61 48 73.3V416H32V329.3C60.3 317 80 288.8 80 256zm80-64H416V320H160V192zm-32-32v32V320v32h32H416h32V320 192 160H416 160 128z"/></svg>
